X:1
T:The Pearly White City
T:The Pearly White City
T:Arthur Forrest Ingler
T:Arthur Forrest Ingler, 1902
T:Public Domain Courtesy of the Cyber Hymnal™
T:Public Domain Courtesy of the Cyber Hymnal™
C:Arthur Forrest Ingler
Z:Public Domain
Z:Courtesy of the Cyber Hymnal™
%%score ( 1 2 ) ( 3 4 )
L:1/8
Q:1/4=95
M:6/8
K:Eb
V:1 treble 
V:2 treble 
V:3 bass 
V:4 bass 
V:1
 E/[EF]/ | [EG][EG][EG] [DA][EB][Ec] | [EB] [EG]4 [EB] | [DB][Fd][Ec] [DB][DA][DF] | %4
w: 1.~There’s a|ho- ly and beau- ti- ful|ci- ty Whose|build- er and rul- er is|
w: 2.~N- o|sin is al- lowed in that|ci- ty And|no- thing de- fil- ing or|
w: 3.~N- o|heart- aches are known in that|ci- ty, No|tears ev- er moist- en the|
w: 4.~M- y|loved ones are gath- er- ing|yon- der, My|friends too are pass- ing a-|
 [EG]3- [EG]2 E | [EG][EG][EG] [DA][EB][Ec] | [EB] [EG]4 [EB] | [DB][Fd][Ec] [DB][DF][DG] | %8
w: God; * John|saw it de- scend- ing from|Heav- en, When|Pat- mos, in ex- ile, he|
w: mean; * No|pain and no sick- ness can|en- ter, No|crepe on the door- knob is|
w: eyes; * There’s|no dis- ap- point- ment in|Heav- en, No|en- vy and strife in the|
w: way, * And|soon I shall join their bright|num- ber, And|dwell in e- ter- ni- ty’s|
 E3- E2 E | [DF][EG][FA] [DA][DB][Dc] | [EB] [EG]4 [EG] | [DF][EG][FA] [DA][DB][Dc] | %12
w: trod; * Its|high, mass- ive wall is of|jas- per, The|ci- ty it- self is pure|
w: seen; * Earth’s|sor- rows and cares are for-|got- ten, No|tempt- er is there to an-|
w: sky; * The|saints are all sanc- t- ified|whol- ly, They|live in sweet har- mo- ny|
w: day; * They’re|safe now in glor- y with|Je- sus, Their|tri- als and ba- ttles are|
 [EB]3- [EB]2 [GB] | [Ac][Ad][Ae] [Ae][Ad][Ac] | [GB] [EG]4 [EB] | [DB][Fd][Ec] [DB][DF][DG] | %16
w: gold; * And|when my frail tent here is|fold- ed, Mine|eyes shall its glor- y be-|
w: noy; * No|part- ing words ev- er are|spok- en, There’s|no- thing to hurt or de-|
w: there; * My|heart is now set on that|ci- ty, And|some day its bless- ings I’ll|
w: past. * They|o- ver- came sin and the|tempt- er, They’ve|reached that fair ci- ty at|
[M:9/8] E6 ||"^Refrain" [EG][DA][EB] | [Ac] [Ac]2- [Ac]3 [ce]>[Bd][Ac] | %19
w: hold.|||
w: stroy.|In that bright|ci- ty, * pearl- y white|
w: share.|||
w: last.|||
 [Ac] [GB]2- [GB]3 [EG]>[EF]E | [EG] [EB]4 [EG] [EG]>[EF]E | F6 [EG][EF]E | %22
w: |||
w: ci- ty, * I have a|man- sion, a harp, and a|crown; Now I am|
w: |||
w: |||
 [EG] [GB]2- [GB]3 [Ac][Ae][Ac] | [GB] [EG]2- [EG]3 [EB]>[Ec][EB] | %24
w: ||
w: watch- ing, * wait- ing, and|long- ing, * For the white|
w: ||
w: ||
 [EB]"^riten." [EG]4 E [DF]>[DF][DG] | E6- E2 |] %26
w: ||
w: ci- ty that’s soon com- ing|down. *|
w: ||
w: ||
V:2
 E/ x/ | x6 | x6 | x6 | x5 E | x6 | x6 | x6 | E3- E2 E | x6 | x6 | x6 | x6 | x6 | x6 | x6 | %16
[M:9/8] E6 || x3 | x9 | x8 E | x8 E | F6 E x2 | x9 | x9 | x9 | E6- E2 |] %26
V:3
 [E,G,]/[E,A,]/ | [E,B,][E,B,][E,B,] [F,B,][G,B,]A, | [E,G,] [E,B,]4 [E,G,] | %3
 [B,,F,][B,,B,][B,,B,] [B,,B,][B,,B,][B,,B,] | [E,B,]3- [E,B,]2 [E,G,] | %5
 [E,B,][E,B,][E,B,] [F,B,][G,B,]A, | [E,G,] [E,B,]4 [E,G,] | %7
 [B,,F,][B,,B,][B,,B,] [B,,A,][B,,A,][B,,B,] | [E,G,]3- [E,G,]2 [E,G,] | %9
 [B,,B,][B,,B,][B,,B,] [B,,B,][B,,A,][B,,A,] | [E,G,] [E,B,]4 [E,B,] | %11
 [B,,B,][B,,B,][B,,B,] [B,,B,][B,,A,][B,,A,] | [E,G,]3- [E,G,]2 [E,E] | %13
 [A,E][B,E][CE] [CE][B,E][A,E] | [E,E] [E,B,]4 [E,G,] | %15
 [B,,F,][B,,B,][B,,B,] [B,,A,][B,,A,][B,,B,] |[M:9/8] [E,G,]6 || [E,B,][F,B,][G,B,] | %18
 [A,E] [A,E]2- [A,E]3 [A,E]>[A,E][A,E] | [E,E] [E,E]2- [E,E]3 [E,B,]>[E,A,][E,G,] | %20
 [E,B,] [E,G,]4 [E,B,] [C,=A,]>[F,,A,][F,,A,] | (B,3 A,3) [E,B,][E,A,][E,G,] | %22
 [E,B,] [E,E]2- [E,E]3 [A,E][A,C][A,E] | [E,E] [E,B,]2- [E,B,]3 [E,G,]>[E,A,][E,G,] | %24
 [E,G,] [E,B,]4 [_C,=A,] [B,,_A,]>[B,,A,][B,,B,] | [E,,E,G,]6- [E,,E,G,]2 |] %26
V:4
 x | x5 A, | x6 | x6 | x6 | x5 A, | x6 | x6 | x6 | x6 | x6 | x6 | x6 | x6 | x6 | x6 |[M:9/8] x6 || %17
 x3 | x9 | x9 | x9 | B,,6 x3 | x9 | x9 | x9 | x8 |] %26

